icons/extend-trim-32.svg

<svg xmlns="http://www.w3.org/2000/svg" viewBox="0 0 32 32"><path fill="none" d="M0 0h32v32H0z"/><path d="M15 24h1v6h-1zm1-22h-1v17h1zm1 8h1V9h-1zm2 12h1v-1h-1zm2 0h1v-1h-1zm2 0h1v-1h-1zm2 0h1v-1h-1zm2 0h1v-1h-1zm2 0h1v-1h-1zM19 10h1V9h-1zm2 0h1V9h-1zm-7 10v1H1v1h13v1h3v-3zm2 2h-1v-1h1zM26 9V8h-3v3h3v-1h4V9zm-1 1h-1V9h1z"/></svg>

<svg id="icons" xmlns="http://www.w3.org/2000/svg" viewBox="0 0 32 32"><defs><style>.cls-1{fill:none;}</style></defs><rect class="cls-1" width="32" height="32"/><path d="M15,24h1v6H15ZM16,2H15V19h1Zm1,8h1V9H17Zm2,12h1V21H19Zm2,0h1V21H21Zm2,0h1V21H23Zm2,0h1V21H25Zm2,0h1V21H27Zm2,0h1V21H29ZM19,10h1V9H19Zm2,0h1V9H21ZM14,20v1H1v1H14v1h3V20Zm2,2H15V21h1ZM26,9V8H23v3h3V10h4V9Zm-1,1H24V9h1Z"/></svg>
